X:1
T:Fugue in C Minor
T:Fughetta in C Minor
T:BWV 961
T:J. S. Bach
C:J. S. Bach
L:1/8
Q:1/4=80
M:12/8
K:Eb
V:1 treble+8 nm="Recorder" snm="Rec."
V:1
!mf!"^Sostenuto, quasi Andante." (G=AB cde dcB ABc | PB=AG) (!tenuto!g^fg Pedc) (!tenuto!gfg | %2
 PdcB) (!tenuto!g^fg cde =Adc) |"_dim." B/d/c/e/d/f/ (Me3- edc) (Md3- | dc=B) (cde fga dgf) | %5
"_cresc." (efg cfe) (def Be_d) | Mc3 Td3 edc BcA |!p! G2 z z2 z z6 | (EFG ABc BAG FGA) | %9
"_cresc." (G=AB cde dcB ABc) | (Bcd efg fed cde) |!mf! d/f/e/g/f/a/ g2 B AGA- AaG | %12
 !tenuto!PA3"_dim." G/B/A/c/B/_d/ c/B/A/G/F/=E/ F/A/G/B/A/c/ | %13
 B/A/G/F/=E/D/ E/G/F/A/G/B/ A/c/f/c/B/A/ G/B/=e/B/A/G/ |!mf! (FGA Bc_d cBA GAB | %15
 PAGF) (!tenuto!f=ef P_dcB) (!tenuto!fef | PcBA) (!tenuto!f=ef Bc_d GcB) | %17
 A/G/A/c/d/e/ f/A/f/A/f/A/ G/F/G/B/c/d/ e/d/c/B/A/G/ | %18
 F/E/F/=A/=B/c/ d/B/F/d/B/F/ !^!E2 !^!c{_B} !^!_A2 !^!f | %19
{c} !^!B2 !^!c- !^!cB/=A/B !^!c3- c/e/d/f/e/c/ | F3- F/e/d/f/e/c/ E3- E/e/d/f/e/c/ | %21
 a/g/f/e/d/c/ =B/d/e/f/e/d/ g/f/e/d/c/_B/ A/c/d/e/d/c/!dacoda! | Mf3- f/a/g/f/e/d/ gf/e/d/c/ Gc=B | %23
 !fermata!c12!D.C.! |]O!f! (Mf3- f/a/g/f/e/d/ cde fga | gfe def Pedc) c'=bc' | %26
 Pagf c'=bc' Pgfe c'bc' | fga dgf ef/e/d/c/ Gc=B | !fermata!c12 |] %29

